X: 2
T: Sleepy Maggie
R: reel
M: 4/4
L: 1/8
K: Ador
f2de fBde|f2df eAce|f2de fBde|fgaf eAce:||:fBdB fBde|fBdB eAce|1 fBdB fBde|fgaf eAce:|2 dcBc defg|abaf eAce|||:fBbB fBde|fBbB aAce|fBbB aBgB|fBgB aAce:|f2de fBde|f2df eAce|f2de fBde|fgaf eAce:||:fBdB fBde|fBdB eAce|fBdB fBde|fgaf eAce:||:f2db Bfde|f2db Aece|f2db Bfde|fbaf eAce:||:fBbB fBde|fBbB aAce|fBbB aBgB|fBgB aAce:|e2cd eAcd|e2ce dGBd|e2cd eAcd|efge dGBd:||:eAcA eAcd|eAcA dGBd|eAcA eAcd|efge dGBd:||:e2ca Aecd|e2ca GdBd|e2ca Aecd|eage dGBd:||:eAaA eAcd|eAaA gGBd|eAaA gAfA|eAfA gGBd:|


Tune 787	Setting 787

